packages/tokens/icons/medal/size16Px.svg

<svg viewBox="0 0 16 16" fill="none" xmlns="http://www.w3.org/2000/svg" width="1em" height="1em"><path d="M9.00003 10.5L11.0544 13.9774C11.2615 14.3278 11.7782 14.2972 11.9424 13.9248L12.1093 13.5462C12.1972 13.3468 12.4042 13.2273 12.6209 13.2508L13.0286 13.2952C13.4339 13.3393 13.7188 12.9057 13.5174 12.5511L11.5 8.99999" stroke="currentColor"/><path d="M5.00006 9L2.7094 12.6122C2.48503 12.966 2.76921 13.4223 3.18571 13.377L3.53234 13.3393C3.749 13.3158 3.95597 13.4352 4.04389 13.6347L4.23304 14.0636C4.39286 14.4261 4.89062 14.4676 5.10829 14.1367L7.50004 10.5" stroke="currentColor"/><circle cx="8" cy="6" r="4.5" stroke="currentColor"/><path d="M8 3.61803L8.31027 4.57295C8.44415 4.98497 8.8281 5.26393 9.26133 5.26393H10.2654L9.45308 5.8541C9.1026 6.10875 8.95594 6.56011 9.08981 6.97214L9.40008 7.92705L8.58778 7.33688C8.2373 7.08224 7.7627 7.08224 7.41221 7.33688L6.59992 7.92705L6.91019 6.97214C7.04406 6.56011 6.8974 6.10875 6.54691 5.8541L5.73461 5.26393L6.73867 5.26393C7.1719 5.26393 7.55586 4.98497 7.68973 4.57295L8 3.61803Z" stroke="currentColor" stroke-linejoin="round"/></svg>

<svg xmlns="http://www.w3.org/2000/svg" fill="none" viewBox="0 0 16 16" width="1em" height="1em"><path stroke="currentColor" d="m9 10.5 2.054 3.477a.5.5 0 0 0 .888-.052l.167-.379a.5.5 0 0 1 .512-.295l.408.044a.5.5 0 0 0 .488-.744L11.5 9M5 9l-2.29 3.612a.5.5 0 0 0 .476.765l.346-.038a.5.5 0 0 1 .512.296l.189.429a.5.5 0 0 0 .875.073L7.5 10.5"/><circle cx="8" cy="6" r="4.5" stroke="currentColor"/><path stroke="currentColor" stroke-linejoin="round" d="m8 3.618.31.955a1 1 0 0 0 .951.69h1.004l-.812.591a1 1 0 0 0-.363 1.118l.31.955-.812-.59a1 1 0 0 0-1.176 0l-.812.59.31-.955a1 1 0 0 0-.363-1.118l-.812-.59h1.004a1 1 0 0 0 .95-.691L8 3.618Z"/></svg>
